X:1
T:O capo mio spino
T:O capo mio spinoso
T:Tomaso Cecchino
T:Source : Canti Spirituali a uno, due et tre voci + BC---Venetia---G.Vincenti---1613. Editor : André Vierendeels (24/10/16).3
T:Notes : Original clefs : C4, F4 Figures in BC are notated in original print Dialogo sopra una divotissima Imagine di N.Sig. incoronato di spine Peccatore, & Gesu. 
T:©
T:©
T:©
C:Tomaso Cecchino
Z:©
%%score 1 2
L:1/8
Q:1/4=98
M:4/4
K:F
V:1 treble-8 nm="Tenor" snm="T"
V:2 bass nm="MusicXML Part"
V:1
 z4 F4 | G2 A2 B3 c | A3 B/c/ A4 | z2 E2 F4- | F2 G2 ^C2 F2 | E4 D4 | z4 z2 A2 | A4 G2 B2- | %8
w: O|ca- po mio spi-|no- * * so|do- glio-|* so, tor- men-|to- so,|ch'a-|cen- ni'a che|
 B2 G2 ^F4 | ^F2 A4 c2 | BABG A4 | z8 | z8 | z2 A2 F4 | E2 E4 E2 | ^F4 F2 AB | c4 B2 A2 | G4 GFGA | %18
w: * m'in- vi-|ti'a che mi|chia- * * * mi?|||ch'io t'a-|mi con che'af-|fet- to, t'a- me-|r'o mio di-|let- to, in gui- der|
 B4 z2 Bc | d6 cB | A4 G4 | z8 | z8 | z FFG A4 | z2 B2 G4 | G2 GA B2 AB | c4 cGGA | B3 c A4 | %28
w: don di co-|si'al- ta mer-|ce- de,|||con vi- va fe|ma'in- se-|gno, che do- ro- tio per|pe- hno del- la mia|ve- ra fe-|
 G2 B4 c/B/A/G/ | A4 A4 | z8 | z8 | A>B c4 BA | G8 | F8 |] %35
w: d'e del mio'a * * *|mo- re|||ec- * * co- t'il|co-|re.|
V:2
"^BC""^(B)" F,2 E,2 D,4 | C,4 G,,4 | F,,8 |"^#" A,,8 | B,,4 A,,4- | A,,4 D,,4- | D,,4 F,,4- | %7
w: |||||||
 F,,4 C,2 G,,2- | G,,2 _E,2 D,4 | D,4 A,,4 |"^#" G,,4 D,4 | z2 A,,2 G,,2 F,,2 | C,4 F,,4 | %13
w: ||||Che tu sol|m'a- mi|
 F,4 D,4 |"^#" C,4 A,,4 | D,4 D,4 | A,,4 G,,2 F,,2 | C,4 C,4 | G,,6 G,,A,, |"^#" B,,2 B,,C, D,4- | %20
w: |||||||
"^-natural" D,4 G,,4 |"^b""^B:" z2 G,,2 A,,3 B,, | C,4 F,,4 | B,,4 F,,4 | G,,4 C,4 | C,4 G,,4 | %26
w: |con vi- va|fe- de||||
 F,,4 C,4 |"^#" G,,4 D,4 | G,4 E,4 |"^#""^#" D,4 D,4 | z2 A,,3 G,, F,,2 | C,4 F,,4 | %32
w: ||||por- gi- m'il|co- re|
 F,,3 G,, A,,2 B,,2 | C,8 | F,,8 |] %35
w: |||

